X: 23372
T: Leitrim, The
R: reel
M: 4/4
K: Edorian
gf|:eB B2 eBdB|AF F2 defd|eB B2 eBdB|AFDE FE E2:|
(3Bcd ef g2 fe|defg a3f|Bdef g2 fe|dbba fe e2|
Bdef g2 fe|defg a2 ga|bgaf gfed|edBd e2||

